tools/download-figma-icons/icons/solid/overview.svg

<svg width="24" height="24" viewBox="0 0 24 24" fill="none" xmlns="http://www.w3.org/2000/svg">
<path fill-rule="evenodd" clip-rule="evenodd" d="M6 0H0.75C0.33525 0 0 0.33525 0 0.75V6C0 6.41475 0.33525 6.75 0.75 6.75H6C6.41475 6.75 6.75 6.41475 6.75 6V0.75C6.75 0.33525 6.41475 0 6 0ZM23.25 0H18C17.5853 0 17.25 0.33525 17.25 0.75V6C17.25 6.41475 17.5853 6.75 18 6.75H23.25C23.6647 6.75 24 6.41475 24 6V0.75C24 0.33525 23.6647 0 23.25 0ZM9.375 0H14.625C15.0398 0 15.375 0.33525 15.375 0.75V6C15.375 6.41475 15.0398 6.75 14.625 6.75H9.375C8.96025 6.75 8.625 6.41475 8.625 6V0.75C8.625 0.33525 8.96025 0 9.375 0ZM6 17.25H0.75C0.33525 17.25 0 17.5853 0 18V23.25C0 23.6647 0.33525 24 0.75 24H6C6.41475 24 6.75 23.6647 6.75 23.25V18C6.75 17.5853 6.41475 17.25 6 17.25ZM18 17.25H23.25C23.6647 17.25 24 17.5853 24 18V23.25C24 23.6647 23.6647 24 23.25 24H18C17.5853 24 17.25 23.6647 17.25 23.25V18C17.25 17.5853 17.5853 17.25 18 17.25ZM14.625 17.25H9.375C8.96025 17.25 8.625 17.5853 8.625 18V23.25C8.625 23.6647 8.96025 24 9.375 24H14.625C15.0398 24 15.375 23.6647 15.375 23.25V18C15.375 17.5853 15.0398 17.25 14.625 17.25ZM0.75 8.625H6C6.41475 8.625 6.75 8.96025 6.75 9.375V14.625C6.75 15.0398 6.41475 15.375 6 15.375H0.75C0.33525 15.375 0 15.0398 0 14.625V9.375C0 8.96025 0.33525 8.625 0.75 8.625ZM23.25 8.625H18C17.5853 8.625 17.25 8.96025 17.25 9.375V14.625C17.25 15.0398 17.5853 15.375 18 15.375H23.25C23.6647 15.375 24 15.0398 24 14.625V9.375C24 8.96025 23.6647 8.625 23.25 8.625ZM9.375 8.625H14.625C15.0398 8.625 15.375 8.96025 15.375 9.375V14.625C15.375 15.0398 15.0398 15.375 14.625 15.375H9.375C8.96025 15.375 8.625 15.0398 8.625 14.625V9.375C8.625 8.96025 8.96025 8.625 9.375 8.625Z" fill="black"/>
</svg>

<svg width="24" height="24" viewBox="0 0 24 24" fill="none" xmlns="http://www.w3.org/2000/svg"><path fill-rule="evenodd" clip-rule="evenodd" d="M6 0H.75A.75.75 0 0 0 0 .75V6c0 .415.335.75.75.75H6A.75.75 0 0 0 6.75 6V.75A.75.75 0 0 0 6 0Zm17.25 0H18a.75.75 0 0 0-.75.75V6c0 .415.335.75.75.75h5.25A.75.75 0 0 0 24 6V.75a.75.75 0 0 0-.75-.75ZM9.375 0h5.25a.75.75 0 0 1 .75.75V6a.75.75 0 0 1-.75.75h-5.25a.75.75 0 0 1-.75-.75V.75a.75.75 0 0 1 .75-.75ZM6 17.25H.75A.75.75 0 0 0 0 18v5.25c0 .415.335.75.75.75H6a.75.75 0 0 0 .75-.75V18a.75.75 0 0 0-.75-.75Zm12 0h5.25A.75.75 0 0 1 24 18v5.25a.75.75 0 0 1-.75.75H18a.75.75 0 0 1-.75-.75V18a.75.75 0 0 1 .75-.75Zm-3.375 0h-5.25a.75.75 0 0 0-.75.75v5.25c0 .415.335.75.75.75h5.25a.75.75 0 0 0 .75-.75V18a.75.75 0 0 0-.75-.75ZM.75 8.625H6a.75.75 0 0 1 .75.75v5.25a.75.75 0 0 1-.75.75H.75a.75.75 0 0 1-.75-.75v-5.25a.75.75 0 0 1 .75-.75Zm22.5 0H18a.75.75 0 0 0-.75.75v5.25c0 .415.335.75.75.75h5.25a.75.75 0 0 0 .75-.75v-5.25a.75.75 0 0 0-.75-.75Zm-13.875 0h5.25a.75.75 0 0 1 .75.75v5.25a.75.75 0 0 1-.75.75h-5.25a.75.75 0 0 1-.75-.75v-5.25a.75.75 0 0 1 .75-.75Z" fill="currentColor"/></svg>
